!!!!SEGMENT: Lps2016-Letetur_omne_seculum.krn
!!!id: Lps2016
!!!AGN: Motet
!!!SCT: Sherr (1998)
!!!voices: 4
!!!COM: Lupus Hellinck
!!!OTL: Letetur omne seculum
**kern	**kern	**kern	**kern
*part4	*part3	*part2	*part1
*staff4	*staff3	*staff2	*staff1
*I"Bassus	*I"Tenor	*I"Altus	*I"Superius
*I'B	*I'T	*I'A	*I'S
*clefF4	*clefGv2	*clefG2	*clefG2
*k[]	*k[]	*k[]	*k[]
*C:	*C:	*C:	*C:
*M2/1	*M2/1	*M2/1	*M2/1
*met(C|)	*met(C|)	*met(C|)	*met(C|)
!!section: Prima pars: Letetur omne seculum
!!!OMD: Prima pars: Letetur omne seculum
=1	=1	=1	=1
0r	0r	0r	1a
.	.	.	2a
.	.	.	[2dd
=2	=2	=2	=2
0r	0r	0r	2dd]
.	.	.	2cc
.	.	.	2dd
.	.	.	[2ff
=3	=3	=3	=3
0r	1A	0r	4ff]
.	.	.	4ee
.	.	.	1ee
.	2A	.	.
.	[2d	.	2dd
=4	=4	=4	=4
0r	2d]	1r	1ee
.	2c	.	.
.	2d	1d	[1a
.	[2f	.	.
=5	=5	=5	=5
0r	2f]	2d	2a]
.	1e	1g	2b
.	.	.	2cc
.	2d	2f	2dd
=6	=6	=6	=6
1r	4e	2g	2.b
.	4f	.	.
.	4g	1b	.
.	4e	.	4cc
1D	2.f	.	[1dd
.	.	[2a	.
.	4e	.	.
=7	=7	=7	=7
2D	4d	2a]	0dd_
.	4c	.	.
1G	2d	2g	.
.	2r	1a	.
2F	2A	.	.
=8	=8	=8	=8
2G	2B	1.d	1dd]
1B	1d	.	.
.	.	.	2r
[2A	2c	2e	2a
=9	=9	=9	=9
2A]	2d	2f	2a
2G	2B	2g	1dd
1A	1A	1e	.
.	.	.	2cc#i
=10	=10	=10	=10
2.D	1r	1.d	2dd
.	.	.	2.ff
4E	.	.	.
4F	1A	.	.
4G	.	.	4ee
4A	.	2c	[2ee
4B	.	.	.
=11	=11	=11	=11
2c	2A	1f	2ee]
2B	1d	.	2dd
2.A	.	2r	1ee
.	2c	2e	.
4G	.	.	.
=12	=12	=12	=12
2F	2d	2.f	2.a
2D	1f	.	.
.	.	8eL	4b
.	.	8dJ	.
[1A	.	4c	4cc
.	.	4A	4dd
.	2e	[2a	2ee
=13	=13	=13	=13
2A]	2f	2a]	4cc
.	.	.	4a
2G	2g	2b	2.dd
2.A	1e	1a	.
.	.	.	4cc#i
.	.	.	2cc#i
4G	.	.	.
=14	=14	=14	=14
2F	0d	2r	1dd
2G	.	1g	.
2D	.	.	2r
[2B-X	.	2f	[2dd
=15	=15	=15	=15
2B-]	0r	2g	2dd]
2A	.	2a	2cc
2.G	.	1b-i	2dd
.	.	.	2ee
4F	.	.	.
=16	=16	=16	=16
4D	2r	1a	1ff
4E	.	.	.
4F	1d	.	.
4G	.	.	.
1A	.	2r	1ee
.	2c	2e	.
=17	=17	=17	=17
0r	2d	2f	2dd
.	2e	2g	1cc
.	1f	[1a	.
.	.	.	4b
.	.	.	4a
=18	=18	=18	=18
0r	1e	2a]	1b
.	.	2g	.
.	1r	2.f	2a
.	.	.	[2cc
.	.	8eL	.
.	.	8dJ	.
=19	=19	=19	=19
2r	0r	4c	4cc]
.	.	4d	4b
1G	.	2.e	2b
.	.	.	2.a
.	.	4d	.
2F	.	[2d	.
.	.	.	8gL
.	.	.	8fJ
=20	=20	=20	=20
2G	1r	2d]	1e
2A	.	2c	.
1B-i	2r	2f	2d
.	[2d	2g	2dd
=21	=21	=21	=21
1A	2d]	1a	2.ff
.	2c	.	.
.	.	.	4ee
2r	2d	1r	4dd
.	.	.	4ff
2G	2e	.	[2ee
=22	=22	=22	=22
2A	1f	0r	4ee]
.	.	.	4dd
2B	.	.	2dd
2.c	1e	.	[1ee
4B	.	.	.
=23	=23	=23	=23
4A	2r	0r	1ee]
4G	.	.	.
2A	2c	.	.
2.G	2d	.	1r
.	2e	.	.
8FL	.	.	.
8EJ	.	.	.
=24	=24	=24	=24
4D	2.f	0r	0r
4E	.	.	.
4F	.	.	.
4G	8eL	.	.
.	8dJ	.	.
4A	2f	.	.
4D	.	.	.
[2A	[2e	.	.
=25	=25	=25	=25
4A]	2e]	0r	1r
4G	.	.	.
2F	1d	.	.
1E	.	.	1gg
.	2c#i	.	.
=26	=26	=26	=26
1D	1d	2r	2ff
.	.	2d	2dd
1r	1r	2c	1ee
.	.	2A	.
=27	=27	=27	=27
0r	1d	1B	2dd
.	.	.	2b
.	2c	2A	4cc
.	.	.	4dd
.	2A	[2a	4ee
.	.	.	4cc
=28	=28	=28	=28
2r	1B	2a]	2dd
2G	.	2g	2ee
2F	2A	2a	1ff
2D	[2d	2f	.
=29	=29	=29	=29
1E	2d]	1g	1ee
.	2c	.	.
2D	2d	2f	1a
[2A	2e	[2a	.
=30	=30	=30	=30
2A]	2f	2a]	2r
2G	2g	2b	2dd
2A	2e	[1a	2cc
2F	[2f	.	2a
=31	=31	=31	=31
2D	2f]	2a]	1b
2E	2e	2g	.
2.F	2c	2f	2.a
.	2d	2a	.
4E	.	.	4b
=32	=32	=32	=32
2C	2e	2g	2cc
2D	2.d	2.f	2.b
1F	.	.	.
.	4c	4e	4a
.	4B	4c	[2a
.	4A	4d	.
=33	=33	=33	=33
1E	1B	1e	2a]
.	.	.	2g#i
[1A	[1A	2r	1a
.	.	2e	.
=34	=34	=34	=34
1A]	1A]	2e	2r
.	.	2e	2a
1r	1r	2f	2a
.	.	2g	2b
=35	=35	=35	=35
0r	0r	1a	2.cc
.	.	.	4dd
.	.	2g	2ee
.	.	[2a	[2ff
=36	=36	=36	=36
2r	2r	4a]	4ff]
.	.	4g	4ee
2D	2A	4f	1ee
.	.	4e	.
2D	2A	1f	.
2D	2B	.	2dd
=37	=37	=37	=37
2A	2.c	1e	1ee
2A	.	.	.
.	4d	.	.
2G	2e	1r	1r
[2A	[2f	.	.
=38	=38	=38	=38
4A]	4f]	0r	0r
4G	4e	.	.
4F	1e	.	.
4E	.	.	.
1F	.	.	.
.	2d	.	.
=39	=39	=39	=39
0E	0e	2r	2r
.	.	1g	1gg
.	.	2g	2gg
=40	=40	=40	=40
1r	1r	2.a	2.ff
.	.	4g	4ee
2r	2r	2f	2dd
[2G	[2g	[2g	[2ee
=41	=41	=41	=41
2G]	2g]	4g]	4ee]
.	.	4a	4dd
2G	2g	2b	1dd
1A	2.f	1a	.
.	.	.	2cc
.	4e	.	.
=42	=42	=42	=42
2F	4f	1d	1dd
.	4e	.	.
2.G	4d	.	.
.	4c	.	.
.	4B	2r	2r
4F	4A	.	.
4E	[2d	[2g	[2gg
4D	.	.	.
=43	=43	=43	=43
1E	4d]	2g]	2gg]
.	4c#i	.	.
.	2c#i	2e	2gg
2D	2.d	2.f	2.ff
[2d	.	.	.
.	4e	4g	4ee
=44	=44	=44	=44
2d]	2f	2a	2dd
2c	2.g	2e	2.ee
1B-X	.	2f	.
.	4f	.	4dd
.	4e	2g	[2dd
.	4d	.	.
=45	=45	=45	=45
1A	1e	1a	2dd]
.	.	.	2cc#i
[1D	[1d	[1a	[1dd
=	=	=	=
00D]	00d]	00a]	00dd]
=||	=||	=||	=||
*M2/1	*M2/1	*M2/1	*M2/1
*met(C|)	*met(C|)	*met(C|)	*met(C|)
!!section: Secunda pars: Hec Maria fuit
!!!OMD: Secunda pars: Hec Maria fuit
0r	1A	0r	0r
.	2c	.	.
.	2d	.	.
=46	=46	=46	=46
0r	1e	0r	0r
.	[1f	.	.
=47	=47	=47	=47
1D	2f]	0r	0r
.	2e	.	.
2F	1d	.	.
2G	.	.	.
=48	=48	=48	=48
1A	2c	0r	0r
.	2.f	.	.
[1B-X	.	.	.
.	4e	.	.
.	4d	.	.
.	4c	.	.
=49	=49	=49	=49
2B-]	2d	0r	0r
2A	2c	.	.
1G	2.d	.	.
.	4e	.	.
=50	=50	=50	=50
2F	1f	0r	0r
2.B-i	.	.	.
.	2d	.	.
4A	.	.	.
4G	[2g	.	.
4F	.	.	.
=51	=51	=51	=51
2G	4g]	0r	2r
.	4f	.	.
2.A	4e	.	2a
.	4d	.	.
.	2e	.	2cc
4G	.	.	.
2F	[2d	.	2dd
=52	=52	=52	=52
1E	2d]	0r	1ee
.	2c#i	.	.
2D	1d	.	[1ff
[2d	.	.	.
=53	=53	=53	=53
2d]	0r	1d	2ff]
2c	.	.	2ee
1B-X	.	2f	1dd
.	.	2g	.
=54	=54	=54	=54
1A	0r	1a	1cc
1r	.	[1b	2r
.	.	.	[2dd
=55	=55	=55	=55
0r	0r	2b]	2dd]
.	.	2a	2cc
.	.	1g	2dd
.	.	.	2ee
=56	=56	=56	=56
0r	0r	1f	2.a
.	.	.	4b
.	.	2r	2cc
.	.	[2g	4b
.	.	.	4cc
=57	=57	=57	=57
0r	0r	2g]	4dd
.	.	.	4ee
.	.	2f	2ff
.	.	2g	4ee
.	.	.	2dd
.	.	2a	.
.	.	.	4cc
=58	=58	=58	=58
0r	2r	2.d	2.dd
.	1d	.	.
.	.	4e	4cc
.	.	4f	2a
.	.	4g	.
.	2c	[2a	2cc
=59	=59	=59	=59
0r	2d	4a]	1b
.	.	4g	.
.	2e	2g	.
.	2.A	2.a	2a
.	.	.	[2cc
.	4B	8gL	.
.	.	8fJ	.
=60	=60	=60	=60
2r	2c	2e	2cc]
1G	2.d	1g	4b
.	.	.	4a
.	.	.	4b
.	4e	.	4cc
2F	2f	2a	[2dd
=61	=61	=61	=61
2G	4e	2b	4dd]
.	4d	.	2cc
2A	2.f	1a	.
.	.	.	4cc
2D	.	.	1dd
.	4e	.	.
2F	[2d	4g	.
.	.	4f	.
=62	=62	=62	=62
1E	2d]	1g	1r
.	2c#i	.	.
1D	1d	[1f	[1ff
=63	=63	=63	=63
2r	2r	1f]	2ff]
1d	1f	.	2ff
.	.	2r	[1ff
2d	2f	2a	.
=64	=64	=64	=64
1d	1f	2a	1ff]
.	.	2b	.
2c	2g	2.cc	2ee
2A	[2c	.	2cc
.	.	4b	.
=65	=65	=65	=65
1c	4c]	2g	1ee
.	4d	.	.
.	4e	1a	.
.	4c	.	.
1B	1d	.	1dd
.	.	2g#i	.
=66	=66	=66	=66
1A	2e	0a	1cc
.	2.f	.	.
2r	.	.	2r
.	4e	.	.
2D	4d	.	[2dd
.	4c	.	.
=67	=67	=67	=67
2F	1d	1r	2dd]
2G	.	.	2dd
1A	2r	2r	[1cc
.	2A	[2a	.
=68	=68	=68	=68
2F	2c	2a]	2cc]
2F	2d	2a	4b
.	.	.	4a
2.E	1e	[1g	2cc
.	.	.	[2b
4F	.	.	.
=69	=69	=69	=69
2G	2d	2g]	2b]
1A	2c	2e	2a
.	1B	2f	1dd
2G	.	2g	.
=70	=70	=70	=70
1A	4A	2.e	1.cc
.	4B	.	.
.	4c	.	.
.	4d	4f	.
2r	2e	2g	.
[2D	[2f	[2a	4b
.	.	.	4a
=71	=71	=71	=71
2D]	2f]	2a]	1b
2E	2e	2g	.
1F	2c	2a	2r
.	[2d	2f	2a
=72	=72	=72	=72
0r	2d]	2f	2a
.	4c	2g	2b
.	4B	.	.
.	1A	2a	2.cc
.	.	2a	.
.	.	.	4dd
=73	=73	=73	=73
1r	1r	2g	2ee
.	.	2.a	2.ff
2r	2r	.	.
.	.	4g	4ee
2D	2A	4f	[2ee
.	.	4e	.
=74	=74	=74	=74
2D	2A	1f	2ee]
2D	2B	.	2dd
2A	2.c	1e	1ee
2A	.	.	.
.	4d	.	.
=75	=75	=75	=75
2G	2e	0r	0r
2.A	2.f	.	.
4G	4e	.	.
4F	[2e	.	.
4E	.	.	.
=76	=76	=76	=76
1F	2e]	1r	1r
.	2d	.	.
[1E	[1e	2r	2r
.	.	[2g	[2gg
=77	=77	=77	=77
1E]	1e]	2g]	2gg]
.	.	2g	2gg
1r	1r	2.a	2.ff
.	.	4g	4ee
=78	=78	=78	=78
2r	2r	2f	2dd
1G	1g	2.g	2.ee
.	.	4a	4dd
2G	2g	2b	[2dd
=79	=79	=79	=79
1A	2.f	1a	2dd]
.	.	.	2cc
.	4e	.	.
2F	4f	1d	1dd
.	4e	.	.
[2G	4d	.	.
.	4c	.	.
=80	=80	=80	=80
4G]	4B	2r	2r
4F	4A	.	.
4E	2.d	1g	1gg
4D	.	.	.
1E	.	.	.
.	4c#i	.	.
.	2c#i	2e	2gg
=81	=81	=81	=81
2D	2.d	2.f	2.ff
1d	.	.	.
.	4e	4g	4ee
.	2f	2a	2dd
2c	[2g	2e	[2ee
=82	=82	=82	=82
1B-X	4g]	2f	4ee]
.	4f	.	4dd
.	4e	2g	1dd
.	4d	.	.
1A	1e	1a	.
.	.	.	2cc#i
=83	=83	=83	=83
00Dl	00dl	00al	00ddl
==	==	==	==
*-	*-	*-	*-
!!!system-decoration: [*]
!!!RDF**kern: i = editorial accidental
!!!RDF**kern: l = terminal long
!!!ENC: Benjamin Ory
!!!END: 2023/10/22
!!!EED: Benjamin Ory
!!!EEV: 2023/10/22
!!!YEC: Copyright 2023 Benjamin Ory, All Rights Reserved
!!!ONB: Translated from MusicXML on 2023/10/22
